X:1
T:Jejunia, 77.77
T:John Stainer, 1875
T:Jejunia, 77.77
T:Public Domain
C:John Stainer, 1875
Z:Public Domain
%%score ( 1 2 ) 3
L:1/8
M:4/4
K:Bb
V:1 treble 
V:2 treble 
V:3 bass 
V:1
 F2 z G [FA]2 [FB]2 | [Ec]2 [EG]2 [EF]4 | [DF]2 [DB]2 [CA]2 [DF]2 | [CA]2 [=EG]2 F4 | %4
 D2 z A [F=B]2 [Ec]2 | [Dd]2 [=B,F]2 [CE]4 | [Ee]2 [Fd]2 [Ec]2 [EG]2 | B2 z E [DB]4 |] %8
V:2
 F3 F2 x3 | x8 | x8 | x4 F4 | G3 G2 x3 | x8 | x8 | F3 A2 x3 |] %8
V:3
 [B,,D]2 [B,,D]2 [E,C]2 [D,B,]2 | [C,A,]2 [B,,B,]2 [A,,C]4 | [B,,F,]2 [G,,F,]2 [A,,F,]2 [B,,F,]2 | %3
 [C,F,]2 [C,B,]2 [F,A,]4 | [F,=B,]2 [E,C]2 [D,D]2 [C,G,]2 | [=B,,G,]2 [G,,G,]2 [C,G,]4 | %6
 [C,G,]2 [D,F,]2 [E,G,]2 [G,B,]2 | [F,D]2 [F,C]2 [B,,B,]4 |] %8

